X:1
T:Avrilla mia
T:Avrilla mia
T:Gio.Girolamo Kapsperger
C:Gio.Girolamo Kapsperger
%%score 1 { ( 2 4 ) | 3 }
L:1/8
Q:1/4=120
M:3/4
K:F
V:1 treble nm="Soprano" snm="S"
V:2 treble nm="BC" snm="BC"
V:4 treble 
V:3 bass 
V:1
 B2 c2 d2 | d4 c2 | B3 A G2 | A4 A2 | c2 B2 A2 | B3 c B2 | B4 A2 | G6 :: G2 A2 B2 | c2 c2 c2 | %10
w: A- vril- la|mi- a|quan- do m'ac-|ce- se,|quel vi- vo|rag- gio di|tua bel-|ta,|quan- d'un tuo|sguar- do al|
w: Ohi me ch'i|lam- pi|di tuoi bei|lu- mi,|a que- sti|miei gia piac-|que- ro|si,|che ben che|ver- sin' fon-|
w: Ma quan- do|vid- di|di bel- la|ma- no,|la pu- ra|ne- ve che|m'in- fiam-|mo,|ahi ch'u- sar|for- za pen-|
w: E quan- do|scor- si|mo- ver il|pas- so,|e star- s'im-|mo- to quel|va- go|pie,|per far- si'un|au- ra per|
w: Boc- ca di|ro- se,|por- ta del|ri- so,|chio- me ca-|te- ne di|ser- vi-|tu,|co- si m'ha-|ve- te da|
 c4 G2 | A4 A2 | A2 B2 c2 | d3 _e d2 | d4 c2 | B6 | D2 E2 F2 | G3 A B2 | B4 A2 | G6 :| %20
w: cor mi|sce- se,|io res- tai|pri- vo di|li- ber-|ta,|io re- stai|pri- vo di|li- ber-|ta.|
w: ta- ne'e|fu- mi,|a- man lo|stra- le che|li fe-|ri,|a- man lo|stra- li che|li fe-|ri.|
w: sier fu|va- no,|che da- me|l'al- ma se|ne vo-|lo,|che da me|l'al- ma se|ne vo-|lo.|
w: far- si'un|sas- so,|lo spir- to'e'l|co- re par-|tir da|me,|lo spir- to'e'l|co- re par-|tir da|me.|
w: me di-|vi- so,|che tor- nar|mi- o non|spe- ro|piu,|che tor- nar|mi- o non|spe- ro|piu.|
V:2
 [Gd]2 [Ec]2 [FB]2 | [GB]4 [CE]2 | [Gd]2 [Gc]4 | [^Fd]6 | [CEA]6 | [DB]6 | G4 ^F2 | [G=B]6 :: %8
 [DGB]6 | [Ac]6 |"^b" [Ge]6 | [Ac]6 | [Ac]2 [DGB]2 [EA]2 | [Fd]6 | B4 c2 | [Fd]6 | [GB]2 [Ec]2 F2 | %17
 [GB]6 | G4 [^FA]2 | [G=B]6 :| %20
V:3
 G,2 A,2 B,2 | G,,4 A,,2 | B,,2 C,2 _E,2 | D,6 | A,,6 | G,,6 | C,2 D,4 | G,,6 :: G,6 | F,6 | %10
 C,4 C,2 | F,4 F,2 | F,2 G,2 A,2 | B,3 C B,2 | _E,2 F,4 | B,,6 | G,,2 C,2 D,2 | _E,3 F, G,2 | %18
 C,2 D,4 | G,,6 :| %20
V:4
 x6 | x6 | x6 | x6 | x6 | x6 | _E2 D4 | x6 :: x6 | x6 | x6 | x6 | x6 | x6 | G2 F2 A2 | x6 | %16
 G2 E2 B,2 | x6 | _E2 D4 | x6 :| %20

